X:434
T: LOET ONS NOCH ENS DRENKEN
N: F0804
O: Europa, Mitteleuropa, Deutschland
R: Geselligkeits -, Trink -, Kirmes - Lied
M: 2/4
L: 1/8
K: F
 | FGAB | c2f2 |
dddd | dcc2 |
cBBB | A2c2 |
GFGA | F2z2

@@@ Tune index: 5865
